svgs/moneta.svg

<svg width="24" height="24" viewBox="0 0 24 24" fill="none" xmlns="http://www.w3.org/2000/svg">
<path fill-rule="evenodd" clip-rule="evenodd" d="M3 2V22L18.75 7.40541V16.7409L15.375 13.8919L13.6875 15.5135L21 22V2L12 10.6486L3 2ZM10.3125 12.2703L5.25 7.40541V16.7409L10.3125 12.2703Z" fill="#FFF1C0"/>
</svg>

<svg xmlns="http://www.w3.org/2000/svg" viewBox="0 0 24 24"><path fill-rule="evenodd" d="M3 2v20L18.75 7.405v9.336l-3.375-2.85-1.687 1.623L21 22V2l-9 8.649zm7.313 10.27L5.25 7.405v9.336l5.063-4.47"/></svg>
